X: 1
T: Coilsfield House
M: 4/4
L: 1/8
R: barndance
K: Gmaj
|: GA | B3 D G2 B,A,/<B,/ | G,4 B,2 AB | c2 cB/A/ B2 BA/G/ | F2 A2 D2 A<d | 
c>BA<G G>FE<D | G4 E2 CA, | B,2 G2 A,2 F2 | G2 G,2 G,2 :|
B<c | d3 e d2 B2 | c2 e2 A2 B<c | d2 dB G2 G>B | AGF<E D2 B<c | 
d3 e d2 B2 | c2 e2 e2 ag | fgag fde<f | g4 g2 ga |
b2 g2 d2 B2 | c2 e2 A2 B<c | d2 dB G2 GB | AGF<E D2 A<c | 
B2 G2 D2 B,2 | C2 E2 A,2 DC | B,2 G2  A,2 F2 | G2 G,2 G,2 |]
